public/avatar/shoe/47.svg

<svg xmlns:xlink="http://www.w3.org/1999/xlink" height="38.3" width="36.05" xmlns="http://www.w3.org/2000/svg"><use height="17.45" transform="translate(8.9 12.65)" width="22.55" xlink:href="#a"/><defs><g id="a"><path d="m5.1 11.3-1.95.3L.8 10.55l.2-1.8L2.55 8q.4-.1 1 .6l1.3 2.65.25.05" fill="#b83131" fill-rule="evenodd" transform="translate(14.9 2.2)"/><path d="M-5.1 14.65q-4.9.55-7.7-.95-2.05-1.15-1.2-4l2.3-2.55Q-8.2-.15-2.6-1 3.05-1.85 5.35.45q1.1 1.05 1.4 4.85l.1 4.6q.1.75-2 1.65-.3.1-.8-1.25l-.5-1.7q0-.4-1.05 0-.85 4.3-2.35 4.85-2.3.9-5.25 1.2" fill="#f74242" fill-rule="evenodd" transform="translate(14.9 2.2)"/><path d="M7 6.75q.45.45-.05 3.4-.05.2-.85.7-1.65.7-2.05.35l-1.1-2.35-.65 2.35q-.8 1.7-2.95 2.85l-5.05.5-5.85-.3q-2.55-.45-2.85-2.55l2.65 1.15q3.7 1.1 8.05.15 2.45-.45 5.5-4.9Q3.3 6.85 7 6.75" fill="#fcb25d" fill-rule="evenodd" transform="translate(14.9 2.2)"/><path d="M6.85 10.3Q8.25.6 3.45-1.1q-3.65-1.25-7.7.15Q-8.15.5-9.4 3.15q-.8 1.8-3.3 4.65-1.9 2.15-1.7 3.25.45 2.15 2 2.8 1.7.9 6 .9 4.35-.1 5.95-1.05 2.15-1.3 3.3-3.55l1 1.4 1.8-.4q.75 0 1.2-.85Z" fill="none" stroke="#b83131" stroke-linecap="round" stroke-linejoin="round" transform="translate(14.9 2.2)"/><path d="m-13.35 10.25 3.65.6h1.15" fill="none" stroke="#fcc" stroke-linecap="round" stroke-linejoin="round" transform="translate(14.9 2.2)"/><path d="M-3.75 1.35q-2 1.25-2.8 2.55l-1.7 3.25" fill="none" stroke="#c23434" stroke-linecap="round" stroke-linejoin="round" transform="translate(14.9 2.2)"/><path d="M-2.4-.35-4.5.6q-1.85 1.1-.85 1.7 1.65 1 5.2-.85" fill="none" stroke="#c23434" stroke-linecap="round" stroke-linejoin="round" transform="translate(14.9 2.2)"/><path d="M1.2 1.35q-2 1.55-5.05.85-3.2-.7-.8-1.85 2.4-1.2 5.65-.9 2.2.25.2 1.9" fill="#c23434" fill-rule="evenodd" transform="translate(14.9 2.2)"/></g></defs></svg>

<?xml version="1.0" encoding="UTF-8" standalone="no"?>
<svg xmlns:xlink="http://www.w3.org/1999/xlink" height="38.3px" width="36.05px" xmlns="http://www.w3.org/2000/svg">
  <g transform="matrix(1.0, 0.0, 0.0, 1.0, 23.8, 14.85)">
    <use height="17.45" transform="matrix(1.0, 0.0, 0.0, 1.0, -14.9, -2.2)" width="22.55" xlink:href="#shape0"/>
  </g>
  <defs>
    <g id="shape0" transform="matrix(1.0, 0.0, 0.0, 1.0, 14.9, 2.2)">
      <path d="M5.1 11.3 L3.15 11.6 0.8 10.55 1.0 8.75 2.55 8.0 Q2.95 7.9 3.55 8.6 L4.85 11.25 5.1 11.3" fill="#b83131" fill-rule="evenodd" stroke="none"/>
      <path d="M-5.1 14.65 Q-10.0 15.2 -12.8 13.7 -14.85 12.55 -14.0 9.7 L-11.7 7.15 Q-8.2 -0.15 -2.6 -1.0 3.05 -1.85 5.35 0.45 6.45 1.5 6.75 5.3 L6.85 9.9 Q6.95 10.65 4.85 11.55 4.55 11.65 4.05 10.3 L3.55 8.6 Q3.55 8.2 2.5 8.6 1.65 12.9 0.15 13.45 -2.15 14.35 -5.1 14.65" fill="#f74242" fill-rule="evenodd" stroke="none"/>
      <path d="M7.0 6.75 Q7.45 7.2 6.95 10.15 6.9 10.35 6.1 10.85 4.45 11.55 4.05 11.2 L2.95 8.85 2.3 11.2 Q1.5 12.9 -0.65 14.05 L-5.7 14.55 -11.55 14.25 Q-14.1 13.8 -14.4 11.7 L-11.75 12.85 Q-8.05 13.95 -3.7 13.0 -1.25 12.55 1.8 8.1 3.3 6.85 7.0 6.75" fill="#fcb25d" fill-rule="evenodd" stroke="none"/>
      <path d="M6.85 10.3 Q8.25 0.6 3.45 -1.1 -0.2 -2.35 -4.25 -0.95 -8.15 0.5 -9.4 3.15 -10.2 4.95 -12.7 7.8 -14.6 9.95 -14.4 11.05 -13.95 13.2 -12.4 13.85 -10.7 14.75 -6.4 14.75 -2.05 14.65 -0.45 13.7 1.7 12.4 2.85 10.15 L3.85 11.55 5.65 11.15 Q6.4 11.15 6.85 10.3 Z" fill="none" stroke="#b83131" stroke-linecap="round" stroke-linejoin="round" stroke-width="1.0"/>
      <path d="M-13.35 10.25 L-9.7 10.85 -8.55 10.85" fill="none" stroke="#ffcccc" stroke-linecap="round" stroke-linejoin="round" stroke-width="1.0"/>
      <path d="M-3.75 1.35 Q-5.75 2.6 -6.55 3.9 L-8.25 7.15" fill="none" stroke="#c23434" stroke-linecap="round" stroke-linejoin="round" stroke-width="1.0"/>
      <path d="M-2.4 -0.35 L-4.5 0.6 Q-6.35 1.7 -5.35 2.3 -3.7 3.3 -0.15 1.45" fill="none" stroke="#c23434" stroke-linecap="round" stroke-linejoin="round" stroke-width="1.0"/>
      <path d="M1.2 1.35 Q-0.8 2.9 -3.85 2.2 -7.05 1.5 -4.65 0.35 -2.25 -0.85 1.0 -0.55 3.2 -0.3 1.2 1.35" fill="#c23434" fill-rule="evenodd" stroke="none"/>
    </g>
  </defs>
</svg>
